X:1
T:Red \& Green (Petra's Hornpipe)
T:Red \& Green (Petra's Hornpipe)
T:Anselm Lingnau
C:Anselm Lingnau
L:1/8
M:4/4
K:C
V:1 treble 
V:1
 dace eace ad uca.Te aveee dace!p! udubed be abe fgueue eagfeef eeve.fuegf!p! ade ea(auD cdegaue afeaa!p!!p! e)ue acua aeadue ce | %1
[K:D][M:4/4] AG |"D" FA d2 dfed |"Em" B2 e2 e2 ed |"A" cdcB AB"A7"AG |"D" FGAB A2 AG | %6
"D" FA d2 dfed |"Em" g2 B2 e2 ef | gfed"A7" cdec |"D" d2"G" d2"D" d2 :: cd |"A" eAce g2 fe | %12
"D" d2 f2"Bm" a2 gf |"Em" gfeg"D" fedf |"A" ed"E7"cB"A" A2 AG |"D" FA d2 dfed |"Em" g2 B2 e2 ef | %17
 gfed"A7" cdec |"D" d2"G" d2"D" d2 :| %19

